X:1
T:New Orleans (Lancashire) -- Clog
R:clog
B:Ryan's Mammoth Collection
N:
Z:Contributed by Ray Davies,  ray:davies99.freeserve.co.uk
M:C|
L:1/8
K:Bb
v(D>.F)ud2 (D>.F)d2 | "^SEGUE"D>F d>c B>GF2 | D>Fd2 D>Fd2 |\
 c>d c>=B c>Af2 |
D>Fd2 D>Fd2 | D>F d>c B>GF2 | D>Fd2 D>Fd2 | c>=B uc>vd u_B4 H:|
K:F
|:v((3cdc) u(=B>.c) (d>.c)(B>.c) | "^SEGUE"f>cA>d c>A F2 |\
 G>^FG>A B>GE>G | F>EF>G "4"A>FC2 |
((3cdc) =B>c d>c B>c | f>cA>d c>AF2 |\
G>^FG>A B>GE>G |1 F>CA,>C F>GA>B :|2 F2 z2 [_E4C4] "_D.C."|]
